svgs/sharp-light/objects-align-center-vertical.svg

<svg xmlns="http://www.w3.org/2000/svg" viewBox="0 0 512 512"><!--! Font Awesome Pro 6.6.0 by @fontawesome - https://fontawesome.com License - https://fontawesome.com/license (Commercial License) Copyright 2024 Fonticons, Inc. --><path d="M192 64l0 176 0 32 0 176-96 0 0-176 0-32L96 64l96 0zm32 176l0-176 0-32-32 0L96 32 64 32l0 32 0 176L0 240l0 32 64 0 0 176 0 32 32 0 96 0 32 0 0-32 0-176 64 0 0 112 0 32 32 0 96 0 32 0 0-32 0-112 64 0 0-32-64 0 0-112 0-32-32 0-96 0-32 0 0 32 0 112-64 0zm96 0l0-112 96 0 0 112 0 32 0 112-96 0 0-112 0-32z"/></svg>

<svg xmlns="http://www.w3.org/2000/svg" viewBox="0 0 512 512"><!--! Font Awesome Pro 6.4.2 by @fontawesome - https://fontawesome.com License - https://fontawesome.com/license (Commercial License) Copyright 2023 Fonticons, Inc. --><path d="M192 64l0 176v32l0 176-96 0 0-176 0-32L96 64l96 0zm32 176l0-176V32l-32 0L96 32 64 32V64l0 176H0l0 32H64l0 176v32H96l96 0h32l0-32 0-176 64 0V384v32h32 96 32V384 272h64V240H448l0-112V96l-32 0H320 288v32l0 112-64 0zm96 0l0-112 96 0 0 112v32V384H320V272 240z"/></svg>
